X:1
T: The Wheels of the World
P:Ryan's version
R:Jig
Q:180
K:Em
M:6/8
L:1/16
|:B2G2E2 B2G2E2|B2G2E2 E2F2G2|A2F2D2 A2F2D2|A2F2D2 D2E2F2|
G6 A6|B2^c2^d2 e4f2|g2f2e2 d2B2A2|B2G2E2 E6:|
|:B6 B2c2A2|B2G2E2 E2F2G2|A6 A2B2G2|A2F2D2 D2E2F2|
G6 A6|B2^c2^d2 e4f2|g2f2e2 d2B2A2|B2G2E2 E6:|
